svg/fluentui-system-icons/ic_fluent_video_person_20_regular.svg

<svg width="20" height="20" viewBox="0 0 20 20" fill="none" xmlns="http://www.w3.org/2000/svg">
<path d="M10 11C11.3807 11 12.5 9.88071 12.5 8.5C12.5 7.11929 11.3807 6 10 6C8.61929 6 7.5 7.11929 7.5 8.5C7.5 9.88071 8.61929 11 10 11ZM10 10C9.17157 10 8.5 9.32843 8.5 8.5C8.5 7.67157 9.17157 7 10 7C10.8284 7 11.5 7.67157 11.5 8.5C11.5 9.32843 10.8284 10 10 10ZM2 5.5C2 4.67157 2.67157 4 3.5 4H16.5C17.3284 4 18 4.67157 18 5.5V14.5C18 15.3284 17.3284 16 16.5 16H3.5C2.67157 16 2 15.3284 2 14.5V5.5ZM7 15H13V13.5C13 13.2239 12.7761 13 12.5 13H7.5C7.22386 13 7 13.2239 7 13.5V15ZM14 15H16.5C16.7761 15 17 14.7761 17 14.5V5.5C17 5.22386 16.7761 5 16.5 5H3.5C3.22386 5 3 5.22386 3 5.5V14.5C3 14.7761 3.22386 15 3.5 15H6V13.5C6 12.6716 6.67157 12 7.5 12H12.5C13.3284 12 14 12.6716 14 13.5V15Z" fill="#212121"/>
</svg>

<svg xmlns="http://www.w3.org/2000/svg" width="20" height="20"><path d="M10 11a2.5 2.5 0 1 0 0-5 2.5 2.5 0 0 0 0 5Zm0-1a1.5 1.5 0 1 1 0-3 1.5 1.5 0 0 1 0 3ZM2 5.5A1.5 1.5 0 0 1 3.5 4h13A1.5 1.5 0 0 1 18 5.5v9a1.5 1.5 0 0 1-1.5 1.5h-13A1.5 1.5 0 0 1 2 14.5v-9ZM7 15h6v-1.5a.5.5 0 0 0-.5-.5h-5a.5.5 0 0 0-.5.5V15Zm7 0h2.5a.5.5 0 0 0 .5-.5v-9a.5.5 0 0 0-.5-.5h-13a.5.5 0 0 0-.5.5v9a.5.5 0 0 0 .5.5H6v-1.5A1.5 1.5 0 0 1 7.5 12h5a1.5 1.5 0 0 1 1.5 1.5V15Z"/></svg>
